images/shovel-two.svg

<svg width="235" height="247" viewBox="0 0 235 247" fill="none" xmlns="http://www.w3.org/2000/svg">
<path d="M227.339 119.97C218.78 112.908 206.136 113.231 197.941 120.7L170.223 145.955C166.345 140.652 160.107 137.26 153.064 137.26H123.669C119.973 137.26 116.395 136.629 113.033 135.381C104.727 132.298 88.3194 128.143 71.8016 134.966C68.6507 136.265 65.5107 138.214 62.4661 140.754L33.7524 164.74C29.2628 162.119 23.4113 162.695 19.572 166.534L6.43631 179.67C1.85644 184.245 1.85268 191.665 6.43631 196.245L50.2904 240.101C54.8585 244.672 62.2922 244.67 66.865 240.101L80.0008 226.961C84.5684 222.396 84.5684 214.96 80.0008 210.386L79.5821 209.968L82.7498 206.801C88.7178 200.836 96.7427 197.676 104.83 198.242C124.246 199.5 143.911 197.952 163.286 193.621C170.058 192.109 176.242 188.703 181.171 183.774L228.15 136.791C232.89 132.051 232.522 124.236 227.339 119.97ZM74.6864 221.647L61.5507 234.786C59.9121 236.427 57.2471 236.423 55.6048 234.786L11.7507 190.93C10.1083 189.284 10.1064 186.633 11.7507 184.985L24.8864 171.849C26.533 170.206 29.1965 170.214 30.8323 171.849C32.3572 173.374 75.0642 216.081 74.6846 215.701C76.3232 217.342 76.3251 220.01 74.6864 221.647ZM222.836 131.476L175.857 178.459C171.937 182.379 167.023 185.084 161.649 186.288C142.968 190.454 124.003 191.966 105.32 190.74C95.1116 190.064 84.9322 193.981 77.4355 201.486L74.2677 204.654C26.6918 156.74 43.1006 173.266 39.5508 169.691L67.2833 146.524C69.7405 144.476 72.2254 142.924 74.6714 141.911C88.8128 136.071 103.138 139.731 110.418 142.428C114.62 143.988 119.078 144.777 123.669 144.777H153.064C160.784 144.777 166.841 151.051 166.78 158.563C166.765 160.846 164.86 162.703 162.533 162.703H96.4636C94.3879 162.703 92.7051 164.384 92.7051 166.461C92.7051 168.539 94.3879 170.22 96.4636 170.22H162.534C168.975 170.22 174.253 165.011 174.297 158.618C174.311 156.716 174.076 154.848 173.599 153.05L203.005 126.257C208.455 121.284 216.868 121.079 222.56 125.769C224.321 127.218 224.45 129.862 222.836 131.476Z" fill="white" fill-opacity="0.3"/>
<path d="M170.402 143.762L196.93 119.591C196.93 119.591 196.93 119.591 196.93 119.591C205.677 111.621 219.157 111.276 228.293 118.812C234.16 123.642 234.576 132.487 229.211 137.851L182.232 184.834L181.171 183.774L182.232 184.834C177.103 189.963 170.664 193.51 163.613 195.085C144.101 199.446 124.293 201.007 104.733 199.738L104.725 199.738C97.1005 199.205 89.4927 202.183 83.8103 207.862C83.8103 207.862 83.8102 207.862 83.8102 207.862L81.6814 209.99C86.2052 215.18 85.9999 223.085 81.0616 228.022C81.0615 228.022 81.0613 228.022 81.0612 228.022L67.9259 241.161L67.9253 241.162C62.7675 246.316 54.3843 246.319 49.2297 241.161L49.2294 241.161M170.402 143.762L6.43631 179.67C1.85644 184.245 1.85268 191.665 6.43631 196.245L50.2904 240.101L49.2294 241.161M170.402 143.762C166.221 138.841 160.005 135.76 153.064 135.76H123.669C120.146 135.76 116.744 135.159 113.555 133.975L113.555 133.975C105.115 130.842 88.2654 126.543 71.2297 133.579C67.9166 134.946 64.6476 136.981 61.5052 139.602L61.5044 139.603L33.5639 162.943C28.654 160.585 22.5859 161.399 18.5115 165.473L18.5114 165.473L5.37614 178.609L170.402 143.762ZM49.2294 241.161L5.37608 197.306M49.2294 241.161L5.37608 197.306M5.37608 197.306L6.43617 196.245L5.37562 197.305C0.205973 192.14 0.210269 183.77 5.37565 178.609L5.37608 197.306ZM60.4894 233.726L60.4899 233.726L73.6256 220.586L73.6264 220.586C74.6766 219.537 74.6786 217.818 73.6236 216.761C73.6234 216.761 73.6233 216.761 73.6231 216.761L73.6105 216.748L73.5358 216.674L73.2107 216.349L71.9112 215.049L67.1466 210.284L52.412 195.55L29.7718 172.91C28.721 171.859 27.0071 171.853 25.9471 172.909L60.4894 233.726ZM60.4894 233.726C59.4393 234.778 57.7239 234.78 56.6646 233.725C56.6642 233.725 56.6639 233.724 56.6636 233.724L12.8125 189.871C12.8122 189.871 12.8119 189.87 12.8115 189.87C11.7542 188.809 11.7532 187.107 12.8115 186.045C12.8119 186.045 12.8122 186.044 12.8125 186.044L25.9459 172.911L60.4894 233.726ZM175.797 158.628C175.747 165.856 169.79 171.72 162.534 171.72H96.4636C93.56 171.72 91.2051 169.368 91.2051 166.461C91.2051 163.555 93.56 161.203 96.4636 161.203H162.533C164.063 161.203 165.271 159.985 165.28 158.553L165.28 158.551C165.334 151.863 159.942 146.277 153.064 146.277H123.669C118.904 146.277 114.27 145.457 109.896 143.834C102.739 141.183 88.8605 137.674 75.2439 143.297C72.9641 144.242 70.6077 145.706 68.2436 147.677L41.7672 169.794L74.2716 202.529L76.3742 200.426M175.797 158.628C175.797 158.628 175.797 158.629 175.797 158.629L174.297 158.618L175.797 158.628ZM175.797 158.628C175.81 156.908 175.632 155.211 175.267 153.56M175.267 153.56L204.016 127.366L204.016 127.365C208.914 122.896 216.489 122.71 221.606 126.927L221.607 126.927C222.684 127.814 222.763 129.428 221.775 130.416M175.267 153.56L174.61 154.159L173.599 153.05M175.267 153.56C175.2 153.26 175.128 152.962 175.049 152.666L173.599 153.05M221.775 130.416L174.796 177.399C171.077 181.118 166.417 183.682 161.323 184.824M221.775 130.416L222.836 131.476M221.775 130.416L221.775 130.416L222.836 131.476M161.323 184.824C142.776 188.959 123.955 190.459 105.418 189.243M161.323 184.824L161.649 186.288L161.322 184.824C161.322 184.824 161.322 184.824 161.323 184.824ZM105.418 189.243C94.7617 188.538 84.1643 192.627 76.3742 200.426M105.418 189.243C105.419 189.243 105.419 189.243 105.419 189.243L105.32 190.74L105.418 189.243ZM76.3742 200.426L76.3749 200.426L77.4355 201.486L76.3742 200.426ZM222.836 131.476L175.857 178.459L222.836 131.476ZM173.599 153.05L203.005 126.257L173.599 153.05ZM73.6263 216.758C73.6278 216.025 73.8832 215.546 74.2162 215.233L74.6842 215.701L73.6263 216.758Z" stroke="white" stroke-opacity="0.3" stroke-width="3"/>
<path d="M132.332 122.581C161.081 122.581 184.476 99.194 184.483 70.4446C184.483 68.3751 182.803 66.6862 180.725 66.6862H136.105V22.0708C136.105 19.9937 134.41 18.3086 132.332 18.3086C103.594 18.3086 80.2129 41.6919 80.2129 70.43C80.2129 99.1865 103.594 122.581 132.332 122.581ZM128.589 25.9796V70.4446C128.589 72.5221 130.269 74.203 132.347 74.203H176.808C174.885 97.054 155.671 115.064 132.332 115.064C107.738 115.064 87.7293 95.0432 87.7293 70.43C87.7298 47.0946 105.74 27.8884 128.589 25.9796Z" fill="white" fill-opacity="0.3"/>
<path d="M185.983 70.445V70.4446C185.983 67.549 183.634 65.1862 180.725 65.1862H137.605V22.0708C137.605 19.16 135.234 16.8086 132.332 16.8086C102.766 16.8086 78.7129 40.8636 78.7129 70.43C78.7129 100.014 102.765 124.081 132.332 124.081C161.91 124.081 185.976 100.023 185.983 70.445ZM127.089 27.6412V70.4446C127.089 73.3506 129.441 75.703 132.347 75.703H175.146C172.536 97.0069 154.328 113.564 132.332 113.564C108.567 113.564 89.2293 94.2157 89.2293 70.43C89.2297 48.4379 105.787 30.2369 127.089 27.6412Z" stroke="white" stroke-opacity="0.3" stroke-width="3"/>
<path d="M147.658 58.8907H196.032C198.109 58.8907 199.79 57.1952 199.79 55.1177C199.79 26.3871 176.403 3.00752 147.658 3C145.584 3 143.899 4.6842 143.899 6.75844V55.1323C143.899 57.2093 145.58 58.8907 147.658 58.8907ZM151.416 10.6743C173.03 12.491 190.314 29.7705 192.12 51.3738H151.416V10.6743Z" fill="white" fill-opacity="0.3"/>
<path d="M147.658 1.5H147.658C144.755 1.5 142.399 3.85578 142.399 6.75844V55.1323C142.399 58.0376 144.752 60.3907 147.658 60.3907H196.032C198.945 60.3907 201.29 58.0161 201.29 55.1177C201.29 25.5581 177.231 1.50774 147.658 1.5ZM152.916 49.8738V12.3367C172.498 14.7327 188.071 30.3031 190.458 49.8738H152.916Z" stroke="white" stroke-opacity="0.3" stroke-width="3"/>
</svg>

<svg xmlns="http://www.w3.org/2000/svg" width="235" height="247" fill="none"><path fill="#fff" fill-opacity=".3" d="M227.339 119.97c-8.559-7.062-21.203-6.739-29.398.73l-27.718 25.255a21.17 21.17 0 0 0-17.159-8.695h-29.395c-3.696 0-7.274-.631-10.636-1.879-8.306-3.083-24.714-7.238-41.231-.415-3.151 1.299-6.291 3.248-9.336 5.788L33.752 164.74c-4.49-2.621-10.34-2.045-14.18 1.794L6.436 179.67c-4.58 4.575-4.583 11.995 0 16.575l43.854 43.856c4.569 4.571 12.002 4.569 16.575 0l13.136-13.14c4.567-4.565 4.567-12.001 0-16.575l-.419-.418 3.168-3.167c5.968-5.965 13.993-9.125 22.08-8.559 19.416 1.258 39.081-.29 58.456-4.621a36.5 36.5 0 0 0 17.885-9.847l46.979-46.983c4.74-4.74 4.372-12.555-.811-16.821M74.686 221.647l-13.135 13.139a4.21 4.21 0 0 1-5.946 0L11.75 190.93a4.2 4.2 0 0 1 0-5.945l13.135-13.136a4.21 4.21 0 0 1 5.946 0l43.853 43.852a4.21 4.21 0 0 1 .001 5.946m148.15-90.171-46.979 46.983a29.05 29.05 0 0 1-14.208 7.829c-18.681 4.166-37.646 5.678-56.329 4.452-10.208-.676-20.388 3.241-27.884 10.746l-3.168 3.168-34.717-34.963 27.732-23.167c2.457-2.048 4.942-3.6 7.388-4.613 14.142-5.84 28.467-2.18 35.747.517 4.202 1.56 8.66 2.349 13.251 2.349h29.395c7.72 0 13.777 6.274 13.716 13.786-.015 2.283-1.92 4.14-4.247 4.14h-66.07a3.757 3.757 0 0 0-3.758 3.758 3.76 3.76 0 0 0 3.759 3.759h66.07c6.441 0 11.719-5.209 11.763-11.602a21 21 0 0 0-.698-5.568l29.406-26.793c5.45-4.973 13.863-5.178 19.555-.488a3.854 3.854 0 0 1 .276 5.707"/><path stroke="#fff" stroke-opacity=".3" stroke-width="3" d="m170.402 143.762 26.528-24.171c8.747-7.97 22.227-8.315 31.363-.779 5.867 4.83 6.283 13.675.918 19.039l-46.979 46.983-1.061-1.06 1.061 1.06a38.03 38.03 0 0 1-18.619 10.251c-19.512 4.361-39.32 5.922-58.88 4.653h-.008c-7.624-.533-15.232 2.445-20.915 8.124l-2.129 2.128c4.524 5.19 4.319 13.095-.62 18.032l-13.135 13.139v.001c-5.159 5.154-13.542 5.157-18.696-.001m121.172-97.399L6.436 179.67c-4.58 4.575-4.583 11.995 0 16.575l43.854 43.856-1.06 1.06m121.172-97.399a22.66 22.66 0 0 0-17.338-8.002h-29.395c-3.523 0-6.925-.601-10.114-1.785-8.44-3.133-25.29-7.432-42.325-.396-3.313 1.367-6.582 3.402-9.725 6.023v.001l-27.941 23.34c-4.91-2.358-10.978-1.544-15.052 2.53L5.375 178.609zM49.229 241.161 5.376 197.306m43.853 43.855L5.376 197.306m0 0 1.06-1.061-1.06 1.06c-5.17-5.165-5.166-13.535 0-18.696zm55.113 36.42 13.137-13.14a2.71 2.71 0 0 0-.002-3.825l-.013-.013-.075-.074-.325-.325-1.3-1.3-4.764-4.765-14.735-14.734-22.64-22.64a2.71 2.71 0 0 0-3.825-.001zm0 0a2.71 2.71 0 0 1-3.824-.001l-.001-.001-43.851-43.853-.002-.001a2.7 2.7 0 0 1 0-3.825l.002-.001 13.133-13.133zm115.308-75.098c-.05 7.228-6.007 13.092-13.263 13.092h-66.07a5.26 5.26 0 0 1-5.259-5.259 5.257 5.257 0 0 1 5.259-5.258h66.069c1.53 0 2.738-1.218 2.747-2.65v-.002c.054-6.688-5.338-12.274-12.216-12.274h-29.395c-4.765 0-9.399-.82-13.773-2.443-7.157-2.651-21.035-6.16-34.652-.537-2.28.945-4.636 2.409-7 4.38l-26.477 22.117 32.505 32.735 2.102-2.103m99.423-41.798v.001l-1.5-.011zm0 0a22.7 22.7 0 0 0-.53-5.068m0 0 28.749-26.194v-.001c4.898-4.469 12.473-4.655 17.59-.438h.001a2.355 2.355 0 0 1 .168 3.489m-46.508 23.144-.657.599-1.011-1.109m1.668.51q-.1-.45-.218-.894l-1.45.384m48.176-22.634-46.979 46.983a27.56 27.56 0 0 1-13.473 7.425m60.452-54.408 1.061 1.06m-1.061-1.06 1.061 1.06m-61.513 53.348c-18.547 4.135-37.368 5.635-55.905 4.419m55.905-4.419.326 1.464-.327-1.464zm-55.905 4.419c-10.656-.705-21.254 3.384-29.044 11.183m29.044-11.183h.001l-.099 1.497zm-29.044 11.183 1.062 1.06zm146.462-68.95-46.979 46.983zm-49.237 21.574 29.406-26.793zm-99.973 63.708c.002-.733.257-1.212.59-1.525l.468.468z"/><path fill="#fff" fill-opacity=".3" d="M132.332 122.581c28.749 0 52.144-23.387 52.151-52.136a3.76 3.76 0 0 0-3.758-3.759h-44.62V22.071a3.77 3.77 0 0 0-3.773-3.762c-28.738 0-52.12 23.383-52.12 52.121 0 28.756 23.382 52.151 52.12 52.151m-3.743-96.601v44.465a3.755 3.755 0 0 0 3.758 3.758h44.461c-1.923 22.851-21.137 40.861-44.476 40.861-24.594 0-44.603-20.02-44.603-44.634 0-23.335 18.011-42.542 40.86-44.45"/><path stroke="#fff" stroke-opacity=".3" stroke-width="3" d="M185.983 70.445a5.26 5.26 0 0 0-5.258-5.259h-43.12V22.071c0-2.911-2.371-5.262-5.273-5.262-29.566 0-53.62 24.055-53.62 53.621 0 29.584 24.053 53.651 53.62 53.651 29.578 0 53.644-24.058 53.651-53.636Zm-58.894-42.804v42.804a5.256 5.256 0 0 0 5.258 5.258h42.799c-2.61 21.304-20.818 37.861-42.814 37.861-23.765 0-43.103-19.348-43.103-43.134 0-21.992 16.558-40.193 37.86-42.789Z"/><path fill="#fff" fill-opacity=".3" d="M147.658 58.89h48.374c2.077 0 3.758-1.695 3.758-3.772 0-28.73-23.387-52.11-52.132-52.118a3.76 3.76 0 0 0-3.759 3.758v48.374a3.757 3.757 0 0 0 3.759 3.759m3.758-48.216c21.614 1.817 38.898 19.097 40.704 40.7h-40.704z"/><path stroke="#fff" stroke-opacity=".3" stroke-width="3" d="M147.658 1.5a5.26 5.26 0 0 0-5.259 5.258v48.374a5.257 5.257 0 0 0 5.259 5.259h48.374c2.913 0 5.258-2.375 5.258-5.273 0-29.56-24.059-53.61-53.632-53.618Zm5.258 48.374V12.337c19.582 2.396 35.155 17.966 37.542 37.537z"/></svg>
